X: 18
T:Home Ruler
R:hornpipe
Z:Boston sessions
M:4/4
L:1/8
K:D
FE|D2FA D2FA|dfed BcdB|A3B AFDE|FDED B,DA,B,|
D2FA D2FA|dfed BcdB|A3B AFDE|F2D2 D2:|
AB|d3c defg|afbf afed|efed BA (3Bcd|fded BdAB|
d3c defg|afbf afed|efed BA (3dcB|AFEF D2:|

